!!!COM: Schubert, Franz
!!!CDT: 1797/01/31-1828/11/19
!!!SCT: D. 365
!!!OPR: 36 Originaltänze
!!!OPS: 9
!!!ONM: 29
**kern	**kern	**dynam
*part1	*part1	*part1
*staff2	*staff1	*
*I"Klavier	*	*
*I'Klav.	*	*
*clefF4	*clefG2	*
*k[f#c#]	*k[f#c#]	*
*D:	*D:	*
*M3/4	*M3/4	*
=1	=1	=1
8r	(8ff#L	p
4r	8gg	.
.	8aaJ	.
=	=	=
4GG#X	4.bb^	.
4G#X 4B 4d 4fn	.	.
.	8ffn)	.
4G# 4B 4d 4f	(4ff	.
=	=	=
4AA	4.ff#Xi^	.
4A 4d 4f#Xi	.	.
.	8a)	.
4A 4d 4f#	(4a	.
=	=	=
4AA	4.aa^	.
4A 4e 4g	.	.
.	8cc#)	.
4A 4e 4g	(4cc#	.
=	=	=
4D	4.aa^)	.
4A 4d 4f#	.	.
.	(8fff#L	.
4A 4d 4f#	8ggg	.
.	8aaaJ	.
=	=	=
4GG#X	4.bbb^	.
4G#X 4B 4d 4fn	.	.
.	8fffn)	.
4G# 4B 4d 4f	(4fff	.
=	=	=
4AA	4.fff#Xi^	.
4A 4d 4f#Xi	.	.
.	8aa)	.
4A 4d 4f#	(4aa	.
=	=	=
4AA	4.aaa^	.
4A 4e 4g	.	.
.	8ccc#)	.
4A 4e 4g	(4ccc#	.
=	=	=
4.d 4.f#	4.ddd)	.
=:|!|:	=:|!|:	=:|!|:
4.r	(8ddL	.
.	8ee	.
.	8ff#J)	.
=	=	=
4.FFF# 4.FF#	4.a#X 4.cc# 4.ee 4.gg	fz
8FF# 8F#	8c# 8e 8g 8a#	.
4FF# 4F#	4c# 4e 4g 4a#	.
=	=	=
4.FFF# 4.FF#	4.a#X 4.cc# 4.ee 4.gg	fz
8FF# 8F#	8c# 8e 8g 8a#	.
4FF# 4F#	4c# 4e 4g 4a#	.
=	=	=
4DD 4D	4d 4f# 4b	.
4CC# 4C#	4f# 4a#X 4cc#	.
4BBB 4BB	4f# 4b 4dd	.
=	=	=
2FF# 2F#	4.f# 4.a#X 4.cc#	.
.	(8dd#XL	.
4r	8ee	.
.	8ff#J)	.
=	=	=
4.FFF# 4.FF#	4.a#X 4.cc# 4.ee 4.gg	fz
8FF# 8F#	8c# 8e 8g 8a#	.
4FF# 4F#	4c# 4e 4g 4a#	.
=	=	=
4.FFF# 4.FF#	4.a#X 4.cc# 4.ee 4.gg	fz
8FF# 8F#	8c# 8e 8g 8a#	.
4FF# 4F#	4c# 4e 4g 4a#	.
=	=	=
4DD 4D	4d 4f# 4b	.
4CC# 4C#	4f# 4a#X 4cc#	.
4BBB 4BB	4f# 4b 4dd	.
=	=	=
2FFF# 2FF#	4.f# 4.a#X 4.cc# 4.ff#	.
.	(8cc#L	p
4r	8dd	.
.	8eeJ)	.
=	=	=
4GG#X	(4.ff#^	.
4G#X 4B 4d 4f#	.	.
.	8dd)	.
4G# 4B 4d 4f#	4dd	.
=	=	=
4AA	(4.ff#^	.
4A 4d 4f#Xi	.	.
.	8a)	.
4A 4d 4f#	4a	.
=	=	=
4AA	(4.aa^	.
4A 4e 4g	.	.
.	8cc#)	.
4A 4e 4g	4cc#	.
=	=	=
4D	4.aa^	.
4A 4d 4f#	.	.
.	(8ccc#L	.
4A 4d 4f#	8ddd	.
.	8eeeJ	.
=	=	=
4GG#X	4.fff#^	.
4G#X 4B 4d 4f#	.	.
.	8ddd)	.
4G# 4B 4d 4f#	4ddd	.
=	=	=
4AA	(4.fff#^	.
4A 4d 4f#Xi	.	.
.	8aa)	.
4A 4d 4f#	4aa	.
=	=	=
4AA	(4.aaa^	.
4A 4e 4g	.	.
.	8ccc#)	.
4A 4e 4g	(4ccc#	.
=	=	=
4.d 4.f#	4.ddd)	.
=:|!	=:|!	=:|!
4.d 4.f#	4.ddd	.
8r	8r	.
4r	4r	.
==	==	==
*-	*-	*-
!!!system-decoration: {(s1,s2)}
!!!RDF**kern: i = editorial accidental
!!!AGN: Walzer
!!!EED: Wolfgang Drescher
!!!END: 2025/12/02
!!!ENC: Wolfgang Drescher
!!!EEV: 2025/12/02
!!!title: @{OPR}, @{SCT} №@{ONM}